symbols/web/dock/materialsymbolssharp/dock_wght700gradN25_24px.svg

<svg xmlns="http://www.w3.org/2000/svg" height="24" width="24"><path d="M7.725 23.05v-1.875h8.55v1.875ZM5.8 19.3V1h12.4v18.3Zm3.025-3.025h6.35V15.25h-6.35Zm0-2.9h6.35V6.95h-6.35Zm0-8.3h6.35v-1.05h-6.35Zm0 0v-1.05 1.05Zm0 11.2V15.25v1.025Z"/></svg>

<svg xmlns="http://www.w3.org/2000/svg" height="24" width="24"><path d="M7.725 23.05V21.175H16.275V23.05ZM5.8 19.3V1H18.2V19.3ZM8.825 16.275H15.175V15.25H8.825ZM8.825 13.375H15.175V6.95H8.825ZM8.825 5.075H15.175V4.025H8.825ZM8.825 5.075V4.025V5.075ZM8.825 16.275V15.25V16.275Z"/></svg>
